src/lib/packages/icons/src/assets/filled/chat-settings.svg

<svg width="24" height="24" viewBox="0 0 24 24" fill="none" xmlns="http://www.w3.org/2000/svg">
<path d="M13.02 12C13.02 12.552 12.573 13 12.02 13C11.468 13 11.0149 12.552 11.0149 12C11.0149 11.448 11.458 11 12.01 11H12.02C12.572 11 13.02 11.448 13.02 12ZM21 11.999C21 16.969 16.971 20.998 12.001 20.998C10.661 20.998 9.38099 20.698 8.24099 20.168C7.80099 19.958 7.29107 19.958 6.82107 20.108L4.32107 20.948C3.54107 21.208 2.79105 20.458 3.05105 19.678L3.89113 17.178C4.04113 16.708 4.04108 16.198 3.83108 15.758C3.30108 14.618 3.001 13.338 3.001 11.999C3.001 7.02902 7.03002 3 12 3C16.97 3 21 7.02902 21 11.999ZM15.1809 12.002C15.1809 11.525 15.4419 11.083 15.8679 10.844L16 10.769L15.083 9.23102L14.9519 9.30499C14.5249 9.54399 13.999 9.54398 13.573 9.30298C13.149 9.06398 12.888 8.62499 12.888 8.14899C12.888 8.06599 12.8189 8 12.7339 8H11.209C11.124 8 11.055 8.06699 11.055 8.14899C11.055 8.62399 10.7941 9.06398 10.3711 9.30298C9.94511 9.54298 9.41896 9.54399 8.99196 9.30499C8.91996 9.26399 8.82693 9.28801 8.78493 9.35901L8.02004 10.643C7.97804 10.713 8.00297 10.803 8.07497 10.844L8.07693 10.845C8.50093 11.084 8.76196 11.522 8.76296 11.997C8.76396 12.475 8.50293 12.917 8.07693 13.157L8.07497 13.158C8.00197 13.199 7.97804 13.289 8.02004 13.36L8.78396 14.642C8.82596 14.713 8.91896 14.737 8.99196 14.696C9.41896 14.457 9.94414 14.458 10.3701 14.698C10.7941 14.937 11.054 15.377 11.054 15.852C11.054 15.934 11.123 16.001 11.208 16.001H12.7351C12.8201 16.001 12.8889 15.934 12.8889 15.852C12.8889 15.377 13.15 14.937 13.574 14.698C14 14.458 14.5259 14.457 14.9529 14.696C15.0259 14.737 15.1179 14.713 15.1599 14.642L15.9251 13.358C15.9671 13.288 15.9421 13.198 15.8701 13.157L15.8689 13.156C15.4429 12.917 15.1819 12.478 15.1809 12.002Z" fill="currentColor"/>
</svg>

<svg xmlns="http://www.w3.org/2000/svg" width="24" height="24" fill="none"><path fill="currentColor" d="M13.02 12a1 1 0 0 1-1 1 1.005 1.005 0 0 1-1.005-1c0-.552.443-1 .995-1h.01a1 1 0 0 1 1 1Zm7.98-.001a8.999 8.999 0 0 1-8.999 8.999c-1.34 0-2.62-.3-3.76-.83-.44-.21-.95-.21-1.42-.06l-2.5.84c-.78.26-1.53-.49-1.27-1.27l.84-2.5c.15-.47.15-.98-.06-1.42a8.917 8.917 0 0 1-.83-3.759 9 9 0 0 1 17.999 0Zm-5.82.003c0-.477.262-.919.688-1.158l.132-.075-.917-1.538-.131.074a1.41 1.41 0 0 1-1.379-.002 1.327 1.327 0 0 1-.685-1.154.151.151 0 0 0-.154-.149h-1.525a.152.152 0 0 0-.154.149c0 .475-.26.915-.684 1.154-.426.24-.952.241-1.379.002a.153.153 0 0 0-.207.054l-.765 1.284a.145.145 0 0 0 .055.201l.002.001c.424.239.685.677.686 1.152.001.478-.26.92-.686 1.16l-.002.001a.145.145 0 0 0-.055.202l.764 1.282a.154.154 0 0 0 .208.054 1.412 1.412 0 0 1 1.378.002c.424.239.684.679.684 1.154 0 .082.069.149.154.149h1.527a.152.152 0 0 0 .154-.149c0-.475.261-.915.685-1.154.426-.24.952-.241 1.379-.002a.153.153 0 0 0 .207-.054l.765-1.284a.145.145 0 0 0-.055-.201l-.001-.001a1.328 1.328 0 0 1-.688-1.154Z"/></svg>
